X: 10575
T: Dot McKinnon's
R: reel
M: 4/4
K: Gdorian
|:Addc dcAG|DFGD FCCF|DGGF GAB2|A~c3 dcAc|
d2dc dcAG|DFGD FCCF|DGGF GAB2|AGFD G4:|
K: Dmin
|:Addc dcA2|aAgA fAed|c2dA cGc2|efed e~c3|
Addc dcA2|aAgA fAed|c2dc AGE2|cAGE D4:|

